X: 72
T:Y Facsen Felyn
T:The Yellow Brew
M:9/8
L:1/8
Q:130
S:Cadw Twmpath Collection
R:Slip Jig
A:Wales
Z:brian_martin12345@yahoo.com
K:G
Bcd ecA AcA|Bcd edc B2G|Bcd ecA AcA|Bcd dgdB2G:||
c2g gdg gdc|B2g gdg fga|c2g gdg gdc|Bcd dgdB2G:||
